tools/download-figma-icons/icons/outlined-medium/augmented-reality.svg

<svg width="24" height="24" viewBox="0 0 24 24" fill="none" xmlns="http://www.w3.org/2000/svg">
<path fill-rule="evenodd" clip-rule="evenodd" d="M14.9729 1.6005L12.3749 0.1005C12.3679 0.0962063 12.3602 0.0943504 12.3526 0.0925005C12.3456 0.090796 12.3386 0.0890966 12.3322 0.0855C12.3029 0.07125 12.2737 0.05925 12.2422 0.0495C12.2084 0.0375 12.1762 0.02775 12.1409 0.02175C12.1072 0.015 12.0757 0.0105 12.0419 0.009C12.0351 0.00832329 12.029 0.00642542 12.0229 0.00454595C12.0155 0.00225936 12.0081 0 11.9999 0C11.9921 0 11.9846 0.00222868 11.9769 0.00449922L11.9769 0.00449978C11.9705 0.00639426 11.964 0.00831775 11.9572 0.009C11.9242 0.0105 11.8927 0.015 11.8589 0.02175C11.8229 0.02775 11.7899 0.0375 11.7562 0.0495C11.7254 0.06 11.6969 0.07125 11.6684 0.0855C11.6616 0.0890903 11.6546 0.0907901 11.6476 0.0924916C11.64 0.0943444 11.6323 0.0961994 11.6249 0.1005L9.02691 1.6005C8.66841 1.8075 8.54541 2.2665 8.75241 2.625C8.89191 2.86575 9.14391 3 9.40266 3C9.53016 3 9.65916 2.96775 9.77691 2.8995L11.2499 2.04975V3.75C11.2499 4.16475 11.5852 4.5 11.9999 4.5C12.4147 4.5 12.7499 4.16475 12.7499 3.75V2.04975L14.2229 2.8995C14.3407 2.96775 14.4697 3 14.5972 3C14.8567 3 15.1087 2.86575 15.2474 2.625C15.4552 2.2665 15.3322 1.8075 14.9729 1.6005ZM2.25 10.1251C2.66475 10.1251 3 9.78986 3 9.37511V7.67411L4.473 8.52461C4.59075 8.59286 4.71975 8.62511 4.84725 8.62511C5.10675 8.62511 5.35875 8.49086 5.4975 8.25011C5.7045 7.89086 5.5815 7.43261 5.223 7.22561L3.756 6.37811L5.247 5.52611C5.607 5.32061 5.73225 4.86236 5.526 4.50311C5.3205 4.14311 4.8615 4.01636 4.503 4.22411L1.878 5.72411C1.87125 5.72824 1.86619 5.73349 1.86112 5.73874L1.86112 5.73874C1.85606 5.74399 1.851 5.74924 1.84425 5.75336C1.815 5.77211 1.7895 5.79236 1.76325 5.81561C1.73625 5.83811 1.713 5.86136 1.6905 5.88836C1.66875 5.91311 1.64925 5.93711 1.632 5.96411C1.62775 5.97085 1.62233 5.9759 1.61692 5.98095L1.61691 5.98095C1.61087 5.98658 1.60485 5.9922 1.6005 6.00011C1.59624 6.00747 1.59438 6.01502 1.59255 6.02246C1.59083 6.02944 1.58913 6.03633 1.5855 6.04286C1.57125 6.07211 1.56 6.10136 1.54875 6.13211C1.5375 6.16511 1.52925 6.19736 1.52175 6.23186C1.51575 6.26561 1.51125 6.29711 1.509 6.33161C1.50865 6.33869 1.50662 6.34527 1.50458 6.35189C1.5023 6.35931 1.5 6.36679 1.5 6.37511V9.37511C1.5 9.78986 1.83525 10.1251 2.25 10.1251ZM5.24048 18.4705L3.76898 17.6485L5.22323 16.8092C5.58173 16.6022 5.70473 16.1432 5.49773 15.7847C5.28923 15.4247 4.82948 15.3025 4.47323 15.5102L3.00023 16.3607V14.6252C3.00023 14.2105 2.66423 13.8752 2.25023 13.8752C1.83548 13.8752 1.50023 14.2105 1.50023 14.6252V17.6597C1.50023 17.6676 1.5023 17.675 1.50437 17.6825L1.50437 17.6825C1.50625 17.6893 1.50813 17.6961 1.50848 17.7032C1.51073 17.7377 1.51598 17.7715 1.52348 17.806L1.52516 17.8137C1.53203 17.8454 1.53863 17.8759 1.54973 17.9065C1.56023 17.9365 1.57148 17.9635 1.58573 17.9912C1.58948 17.9983 1.59117 18.0056 1.59286 18.0129C1.59455 18.0203 1.59623 18.0276 1.59998 18.0347C1.60669 18.046 1.61502 18.0557 1.6233 18.0653C1.62985 18.0729 1.63635 18.0804 1.64198 18.0887C1.65548 18.1075 1.66823 18.1247 1.68323 18.1427C1.68758 18.1477 1.69154 18.1532 1.69549 18.1586C1.70108 18.1663 1.70664 18.174 1.71323 18.1802C1.71449 18.1818 1.71561 18.1835 1.71671 18.1851C1.71824 18.1874 1.71974 18.1897 1.72148 18.1915C1.77023 18.2402 1.82498 18.2807 1.88348 18.3137L1.88423 18.3144L4.50923 19.7799C4.62548 19.8444 4.75073 19.8752 4.87448 19.8752C5.13698 19.8752 5.39273 19.7365 5.52998 19.4904C5.73173 19.129 5.60198 18.673 5.24048 18.4705ZM21.75 13.8752C21.3353 13.8752 21 14.2105 21 14.6252V16.3262L19.527 15.4757C19.1685 15.268 18.7095 15.391 18.5025 15.7502C18.2955 16.1095 18.4185 16.5677 18.777 16.7747L20.244 17.6222L18.753 18.4742C18.393 18.6797 18.2678 19.138 18.474 19.4972C18.612 19.7395 18.8648 19.8752 19.1258 19.8752C19.2518 19.8752 19.38 19.8437 19.497 19.7762L22.1175 18.2785C22.119 18.2785 22.1198 18.2777 22.1205 18.277L22.122 18.2762L22.1235 18.2747C22.179 18.2425 22.2323 18.2034 22.2788 18.1569C22.2818 18.1539 22.284 18.1495 22.287 18.1457C22.2941 18.1386 22.3004 18.1297 22.3067 18.1208L22.3067 18.1208L22.3067 18.1208L22.3067 18.1208C22.3111 18.1146 22.3154 18.1085 22.32 18.103L22.3314 18.0887C22.3418 18.0759 22.3519 18.0634 22.3613 18.0497C22.364 18.0457 22.367 18.0419 22.3701 18.0381L22.378 18.0287L22.378 18.0287C22.3858 18.0196 22.3935 18.0105 22.3995 18.0002C22.4038 17.9928 22.4057 17.9853 22.4075 17.9779L22.4075 17.9779C22.4092 17.9711 22.4109 17.9643 22.4145 17.9575C22.4288 17.9282 22.44 17.899 22.4513 17.8682C22.4625 17.8344 22.4708 17.8029 22.4783 17.7684C22.4843 17.7347 22.4888 17.7032 22.491 17.6695C22.4914 17.6619 22.4934 17.6551 22.4955 17.6482C22.4978 17.6408 22.5 17.6334 22.5 17.6252V14.6252C22.5 14.2105 22.1648 13.8752 21.75 13.8752ZM12.7499 21.951L14.2229 21.1005C14.5799 20.8935 15.0397 21.0158 15.2474 21.375C15.4552 21.7342 15.3322 22.1925 14.9729 22.3995L12.3749 23.8995L12.3744 23.8999L12.3736 23.9003L12.3719 23.901C12.3622 23.9067 12.3512 23.9109 12.3402 23.9151C12.3326 23.918 12.325 23.9209 12.3179 23.9242C12.3012 23.9319 12.284 23.9385 12.2672 23.945L12.2671 23.945L12.2669 23.9451L12.2668 23.9451L12.2587 23.9482C12.2534 23.9497 12.2482 23.9528 12.2429 23.9543C12.1642 23.982 12.0824 24 12.0007 24H11.9999H11.9992C11.9174 24 11.8357 23.982 11.7569 23.9543C11.7543 23.9535 11.7517 23.9524 11.749 23.9513C11.7464 23.9501 11.7438 23.949 11.7412 23.9482C11.7209 23.9408 11.7022 23.9333 11.6819 23.9242C11.6747 23.9208 11.6671 23.9179 11.6594 23.9149C11.6487 23.9108 11.6379 23.9067 11.6279 23.901L11.6265 23.9004C11.6258 23.9001 11.6254 23.9 11.6249 23.8995L9.02691 22.3995C8.66841 22.1925 8.54541 21.7342 8.75241 21.375C8.95941 21.0158 9.41841 20.8935 9.77691 21.1005L11.2499 21.951V20.25C11.2499 19.8353 11.5852 19.5 11.9999 19.5C12.4147 19.5 12.7499 19.8353 12.7499 20.25V21.951ZM22.4762 6.19405C22.4837 6.22855 22.489 6.2623 22.4912 6.29755C22.4916 6.30463 22.4936 6.31121 22.4957 6.31783L22.4957 6.31785C22.4979 6.32526 22.5002 6.33274 22.5002 6.34105V9.37556C22.5002 9.78955 22.1642 10.1256 21.7502 10.1256C21.3355 10.1256 21.0002 9.78955 21.0002 9.37556V7.64005L19.5272 8.49055C19.4095 8.55881 19.2805 8.59105 19.153 8.59105C18.8935 8.59105 18.6415 8.4568 18.5027 8.21605C18.295 7.8568 18.418 7.39855 18.7772 7.1908L20.2307 6.35155L18.7592 5.5303C18.3977 5.3278 18.268 4.8718 18.4705 4.50955C18.6715 4.1473 19.129 4.01905 19.4905 4.22005L22.1155 5.6863C22.1244 5.69056 22.1307 5.69722 22.1371 5.70397C22.1419 5.70913 22.1468 5.71433 22.153 5.71855C22.1822 5.7373 22.2085 5.7568 22.2355 5.7808C22.261 5.80256 22.285 5.8243 22.3075 5.85055C22.3292 5.87605 22.348 5.9008 22.366 5.9278C22.3704 5.93428 22.3759 5.93951 22.3815 5.94478C22.3881 5.9511 22.3948 5.95746 22.3997 5.96605C22.4042 5.97339 22.406 5.98117 22.4079 5.98892C22.4094 5.99542 22.4109 6.00189 22.414 6.00805C22.4282 6.03655 22.4402 6.06355 22.45 6.09431C22.462 6.12731 22.4695 6.15955 22.4762 6.19405ZM11.9999 11.1337L14.2229 9.85044C14.5799 9.64344 15.0397 9.76569 15.2474 10.1249C15.4552 10.4842 15.3322 10.9424 14.9729 11.1494L12.7499 12.4327V14.9999C12.7499 15.4147 12.4147 15.7499 11.9999 15.7499C11.5852 15.7499 11.2499 15.4147 11.2499 14.9999V12.4327L9.02691 11.1494C8.66841 10.9424 8.54541 10.4842 8.75241 10.1249C8.95941 9.76569 9.41841 9.64344 9.77691 9.85044L11.9999 11.1337Z" fill="black"/>
</svg>

<svg width="24" height="24" viewBox="0 0 24 24" fill="none" xmlns="http://www.w3.org/2000/svg"><path fill-rule="evenodd" clip-rule="evenodd" d="M14.973 1.6 12.375.1a.063.063 0 0 0-.022-.007l-.02-.007a.628.628 0 0 0-.09-.036.637.637 0 0 0-.2-.04l-.02-.005A.077.077 0 0 0 12 0c-.008 0-.015.002-.023.004a.107.107 0 0 1-.02.005.643.643 0 0 0-.098.013.692.692 0 0 0-.19.064l-.021.006a.065.065 0 0 0-.023.009L9.027 1.6a.75.75 0 0 0 .75 1.299l1.473-.85v1.7a.75.75 0 1 0 1.5 0v-1.7l1.473.85a.749.749 0 1 0 .75-1.299ZM2.25 10.126a.75.75 0 0 0 .75-.75v-1.7l1.473.85a.749.749 0 1 0 .75-1.299l-1.467-.848 1.491-.852a.749.749 0 0 0 .279-1.023.748.748 0 0 0-1.023-.279l-2.625 1.5c-.007.004-.012.01-.017.015a.085.085 0 0 1-.017.014.646.646 0 0 0-.08.063.556.556 0 0 0-.074.072.62.62 0 0 0-.058.076c-.004.007-.01.012-.015.017A.077.077 0 0 0 1.6 6a.081.081 0 0 0-.008.021.08.08 0 0 1-.008.02.929.929 0 0 0-.063.19.884.884 0 0 0-.013.1c0 .007-.002.013-.004.02a.06.06 0 0 0-.005.023v3c0 .415.335.75.75.75Zm2.99 8.346-1.471-.823 1.454-.839a.75.75 0 0 0-.75-1.299L3 16.36v-1.735a.75.75 0 1 0-1.5 0v3.035c0 .008.002.015.004.023a.096.096 0 0 1 .004.02.693.693 0 0 0 .015.103l.002.008a.65.65 0 0 0 .06.177c.004.007.006.015.008.022a.086.086 0 0 0 .007.022.217.217 0 0 0 .023.03l.019.024a.918.918 0 0 0 .041.054c.005.005.009.01.012.016l.018.021.004.005.004.007a.75.75 0 0 0 .162.122h.001L4.51 19.78a.75.75 0 1 0 .731-1.31Zm16.51-4.596a.75.75 0 0 0-.75.75v1.701l-1.473-.85a.75.75 0 1 0-.75 1.299l1.467.847-1.491.852a.749.749 0 1 0 .744 1.302l2.62-1.497c.002 0 .003-.001.003-.002h.002l.002-.002a.756.756 0 0 0 .155-.118l.008-.011c.007-.007.013-.016.02-.025l.013-.018.011-.014a.6.6 0 0 0 .04-.05l.007-.01a.197.197 0 0 0 .021-.029.08.08 0 0 0 .008-.022.087.087 0 0 1 .008-.02.93.93 0 0 0 .063-.19.88.88 0 0 0 .013-.099c0-.007.002-.014.005-.02a.076.076 0 0 0 .004-.024v-3a.75.75 0 0 0-.75-.75Zm-9 8.076 1.473-.85a.75.75 0 0 1 .75 1.299l-2.598 1.5h-.001l-.002.001a.212.212 0 0 1-.032.014l-.022.01-.05.02h-.001l-.008.003c-.006.002-.01.005-.016.006A.734.734 0 0 1 12 24a.735.735 0 0 1-.243-.046c-.003 0-.005-.002-.008-.003a.866.866 0 0 1-.067-.027l-.023-.01a.137.137 0 0 1-.031-.013h-.002l-.001-.002-2.598-1.5a.75.75 0 0 1 .75-1.299l1.473.851V20.25a.75.75 0 1 1 1.5 0v1.701Zm9.726-15.757a.682.682 0 0 1 .015.104c0 .007.003.013.005.02a.085.085 0 0 1 .004.023v3.035a.75.75 0 0 1-1.5 0V7.64l-1.473.85a.749.749 0 1 1-.75-1.3l1.454-.838-1.472-.822a.75.75 0 0 1 .732-1.31l2.625 1.466a.09.09 0 0 1 .021.018l.016.015a.49.49 0 0 1 .082.062.632.632 0 0 1 .131.147l.015.017a.077.077 0 0 1 .019.021.09.09 0 0 1 .008.023.083.083 0 0 0 .006.02.645.645 0 0 1 .062.186ZM12 11.134l2.223-1.284a.75.75 0 0 1 .75 1.3l-2.223 1.283V15a.75.75 0 1 1-1.5 0v-2.567l-2.223-1.284a.75.75 0 0 1 .75-1.299L12 11.134Z" fill="currentColor"/></svg>
